X: 125
M: 4/8
L: 1/8
K: Eb
V: 1
V: 2
V: 3 clef=bass middle=d
[V:1] [| B> A G A | G F D2 | B> A G A | G F D2 |
[V:2] B>A GA & [D2B,2] [D2B,2] | GF D2 & [D2B,2] [D2B,2] | B>A GA & [D2B,2] [D2B,2] | GF D2 & [D2B,2] [D2B,2] |
[V:3] [f2B2] [f2B2] | [f2B2] [f2B2] | [d2G2]  [d2G2] | [d2G2]  [d2G2] |
[V:1] F> F {G}G {G}G | A A B2 | F> F G G | A A B2 |
[V:2] F>F GG & B,2 B,2 | AA B2 & E2 D2 | F>F GG & B,2 B,2 | AA B2 & E2 D2 |
[V:3] d2 e2 | f2 g2 | d2 ^c2 | =cF B2 |
[V:1] d> c B c | B A G D/ E/ | F> G F c | B2 z2 |]
[V:2] [dB]>[cA] [BG][cA] & D2 D2 | [BG][AD] [GB,] D/E/ | [F]>G [F]c & D2 E2  | [B2D2] z2 |]
[V:3] [d2G2] [d2G2] | [d2G2] d2 & x2 G_G | [d2F2] [f2F2] | [f2B2] B,2 |]


